images/dist/tg-hover.svg

<svg width="30" height="30" viewBox="0 0 30 30" fill="none" xmlns="http://www.w3.org/2000/svg">
<g clip-path="url(#clip0_70_127)">
<path d="M14.5312 0.46875C6.50391 0.46875 0 6.97266 0 15C0 23.0273 6.50391 29.5312 14.5312 29.5312C22.5586 29.5312 29.0625 23.0273 29.0625 15C29.0625 6.97266 22.5586 0.46875 14.5312 0.46875ZM21.2695 10.3535C21.0527 12.6504 20.1035 18.2285 19.623 20.8008C19.418 21.8906 19.0195 22.2539 18.6328 22.2891C17.7891 22.3652 17.1504 21.7324 16.3301 21.1934C15.0527 20.3555 14.3262 19.834 13.0898 19.0137C11.6543 18.0703 12.5859 17.5488 13.4004 16.6992C13.6172 16.4766 17.332 13.0957 17.4023 12.791C17.4141 12.75 17.4199 12.6094 17.332 12.5332C17.2441 12.457 17.1211 12.4863 17.0332 12.5039C16.9043 12.5312 14.8613 13.8809 10.9043 16.5527C10.3262 16.9512 9.80078 17.1445 9.32812 17.1328C8.80664 17.1211 7.81055 16.8398 7.06641 16.5996C6.1582 16.3066 5.43164 16.1484 5.49609 15.6445C5.52734 15.3828 5.88867 15.1152 6.58008 14.8418C10.8145 12.998 13.6387 11.7812 15.0527 11.1914C19.0898 9.51562 19.9277 9.22266 20.4727 9.21094C20.5957 9.21094 20.8594 9.24023 21.0352 9.38086C21.1499 9.48172 21.223 9.62166 21.2402 9.77344C21.2719 9.96507 21.2817 10.1597 21.2695 10.3535Z" fill="#FFC107"/>
</g>
<defs>
<clipPath id="clip0_70_127">
<rect width="29.0625" height="30" fill="white"/>
</clipPath>
</defs>
</svg>

<svg width="30" height="30" fill="none" xmlns="http://www.w3.org/2000/svg"><g clip-path="url(#a)"><path d="M14.531.469C6.504.469 0 6.973 0 15c0 8.027 6.504 14.531 14.531 14.531 8.028 0 14.531-6.504 14.531-14.531 0-8.027-6.503-14.531-14.53-14.531Zm6.739 9.885c-.217 2.296-1.166 7.875-1.647 10.447-.205 1.09-.604 1.453-.99 1.488-.844.076-1.483-.557-2.303-1.096-1.277-.838-2.004-1.359-3.24-2.18-1.436-.943-.504-1.464.31-2.314.217-.222 3.932-3.603 4.002-3.908.012-.041.018-.182-.07-.258-.088-.076-.21-.047-.299-.03-.129.028-2.172 1.378-6.129 4.05-.578.398-1.103.591-1.576.58-.521-.012-1.517-.293-2.262-.533-.908-.293-1.634-.452-1.57-.956.031-.261.393-.529 1.084-.802 4.235-1.844 7.059-3.06 8.473-3.65 4.037-1.676 4.875-1.97 5.42-1.981.123 0 .386.03.562.17.115.1.188.24.205.392.032.192.042.387.03.58Z" fill="#FFC107"/></g><defs><clipPath id="a"><path fill="#fff" d="M0 0h29.063v30H0z"/></clipPath></defs></svg>
